COLOR/mimes 16/16/text-x-fortran.svg

<svg height="16" width="16" xmlns="http://www.w3.org/2000/svg" xmlns:xlink="http://www.w3.org/1999/xlink"><linearGradient id="a" gradientUnits="userSpaceOnUse" x1="328" x2="328" y1="237" y2="251"><stop offset="0" stop-color="#fff"/><stop offset=".125" stop-color="#fff" stop-opacity=".098039"/><stop offset=".92500001" stop-color="#fff" stop-opacity=".098039"/><stop offset="1" stop-color="#fff" stop-opacity=".498039"/></linearGradient><clipPath id="b"><path d="m325.09646 237c-2.80769 0-3.10979.28839-3.09603 3.10176v3.89824 3.89824c-.0138 2.81337.28834 3.10176 3.09603 3.10176h5.8075c2.8077 0 3.09604-.28835 3.09604-3.10176v-3.89824-3.89824c0-2.8134-.28835-3.10176-3.09604-3.10176z"/></clipPath><linearGradient id="c" gradientTransform="matrix(0 -.03604403 .03604301 0 -3.564212 16.90909)" gradientUnits="userSpaceOnUse" x1="459.03448" x2="35.310345" y1="419.23337" y2="207.36522"><stop offset="0" stop-color="#f2f2f2"/><stop offset="1" stop-color="#f9f9f9"/></linearGradient><path d="m5.0962579 1.0000007c-.71904 0-1.30185.0139-1.83593.10352-.53409.0897-1.0683.27628-1.4765701.68359-.40826.4073-.59657.94323-.68554 1.47851-.089.53529-.10119004 1.12048-.0977 1.8418v2.8925796 3.8984397c-.003.71816.009 1.30235.0977 1.83594.089.53528.27727 1.07121.68554 1.47851.4082701.40731.9424801.59394 1.4765701.68359.53408.0897 1.11689.10352 1.83593.10352h5.8086001c.71904 0 1.30058-.0137 1.83398-.10352.53341-.0898 1.06768-.27792 1.47461-.68554s.59404-.94271.68359-1.47656c.08956-.53386.10352-1.11551.10352-1.83594v-3.8984397-2.8984396c0-.72043-.014-1.30208-.10352-1.83594-.0895-.53385-.27666-1.06894-.68359-1.47656s-.9412-.59578-1.47461-.68554c-.5334-.08977-1.11494-.10352-1.83398-.10352z" opacity=".1"/><path d="m5.0970179 1.0000007c-2.80769 0-3.1097901.28839-3.09603 3.10176v3.8982396 3.8982397c-.0138 2.81337.28834 3.10176 3.09603 3.10176h5.8075001c2.8077 0 3.09604-.28835 3.09604-3.10176v-3.8982397-3.8982396c0-2.8134-.28835-3.10176-3.09604-3.10176z" fill="none" opacity=".2" stroke="#000" stroke-width="2"/><path d="m5.0970179 1.0000007c-2.80769 0-3.1097901.28839-3.09603 3.10176v3.8982396 3.8982397c-.0138 2.81337.28834 3.10176 3.09603 3.10176h5.8075001c2.8077 0 3.09604-.28835 3.09604-3.10176v-3.8982397-3.8982396c0-2.8134-.28835-3.10176-3.09604-3.10176z" fill="url(#c)"/><path d="m11.997668 2.9980707-7.0000001.0117v.99023c1-.002 1 .99807 1 1.99807l.0156 3.0117196c-.0104 1.5010997-.11489 1.9388497-1 1.9999997h-.0156v.99805l4-.01v-1s-.65977.0143-1 0c-1 0-1-1-1-1-.0165-.8785897 0-1.9999997 0-1.9999997.2415.036.79599 0 1 0 1 0 1 1 1 1h1v-2.9999996h-1c-.009.1902 0 1-1 1h-1v-3l2 .00023c2.5000001.00029 2.0000001 1 2.0000001 2h1z" fill="#aea795" stroke-width=".118022"/><path d="m8.0005579 1.0000007v13.9999993h2.9043001c2.8077 0 3.0957-.28815 3.0957-3.10156v-3.8984397-3.8984396c0-2.8134-.28801-3.10156-3.0957-3.10156z" fill="#fff" opacity=".2"/><path d="m2.0005579 8.0000003v3.8984397c-.0138 2.81337.28801 3.10156 3.0957 3.10156h5.8086001c2.8077 0 3.0957-.28815 3.0957-3.10156v-3.8984397z" fill="#fff" opacity=".2"/><path clip-path="url(#b)" d="m325.09646 237c-2.80769 0-3.10979.28839-3.09603 3.10176v3.89824 3.89824c-.0138 2.81337.28834 3.10176 3.09603 3.10176h5.8075c2.8077 0 3.09604-.28835 3.09604-3.10176v-3.89824-3.89824c0-2.8134-.28835-3.10176-3.09604-3.10176z" fill="none" opacity=".4" stroke="url(#a)" stroke-width="2" transform="translate(-319.99944 -236)"/></svg>

<?xml version="1.0" encoding="UTF-8" standalone="no"?>
<svg
   xmlns:dc="http://purl.org/dc/elements/1.1/"
   xmlns:cc="http://creativecommons.org/ns#"
   xmlns:rdf="http://www.w3.org/1999/02/22-rdf-syntax-ns#"
   xmlns:svg="http://www.w3.org/2000/svg"
   xmlns="http://www.w3.org/2000/svg"
   xmlns:xlink="http://www.w3.org/1999/xlink"
   xmlns:sodipodi="http://sodipodi.sourceforge.net/DTD/sodipodi-0.dtd"
   xmlns:inkscape="http://www.inkscape.org/namespaces/inkscape"
   width="16"
   height="16"
   version="1.1"
   id="svg4"
   sodipodi:docname="text-x-fortran.svg"
   inkscape:version="0.92.4 (5da689c313, 2019-01-14)">
  <metadata
     id="metadata10">
    <rdf:RDF>
      <cc:Work
         rdf:about="">
        <dc:format>image/svg+xml</dc:format>
        <dc:type
           rdf:resource="http://purl.org/dc/dcmitype/StillImage" />
      </cc:Work>
    </rdf:RDF>
  </metadata>
  <defs
     id="defs8">
    <linearGradient
       inkscape:collect="always"
       xlink:href="#linearGradient927"
       id="linearGradient993"
       x1="328"
       y1="237"
       x2="328"
       y2="251"
       gradientUnits="userSpaceOnUse" />
    <linearGradient
       inkscape:collect="always"
       id="linearGradient927">
      <stop
         style="stop-color:#ffffff;stop-opacity:1;"
         offset="0"
         id="stop923" />
      <stop
         id="stop933"
         offset="0.125"
         style="stop-color:#ffffff;stop-opacity:0.09803922" />
      <stop
         id="stop931"
         offset="0.92500001"
         style="stop-color:#ffffff;stop-opacity:0.09803922" />
      <stop
         style="stop-color:#ffffff;stop-opacity:0.49803922"
         offset="1"
         id="stop925" />
    </linearGradient>
    <clipPath
       clipPathUnits="userSpaceOnUse"
       id="clipPath983">
      <path
         sodipodi:nodetypes="scccssscsss"
         inkscape:connector-curvature="0"
         id="path985"
         d="m 325.09646,237 c -2.80769,0 -3.10979,0.28839 -3.09603,3.10176 V 244 v 3.89824 c -0.0138,2.81337 0.28834,3.10176 3.09603,3.10176 h 5.8075 C 333.71166,251 334,250.71165 334,247.89824 V 244 240.10176 C 334,237.28836 333.71165,237 330.90396,237 Z"
         style="color:#000000;display:inline;overflow:visible;visibility:visible;opacity:1;fill:#46a926;fill-opacity:1;fill-rule:nonzero;stroke:none;stroke-width:2;stroke-miterlimit:4;stroke-dasharray:none;stroke-opacity:1;marker:none;enable-background:accumulate" />
    </clipPath>
    <linearGradient
       inkscape:collect="always"
       xlink:href="#linearGradient4338"
       id="linearGradient920"
       gradientUnits="userSpaceOnUse"
       gradientTransform="matrix(0,-0.03604403,0.03604301,0,-3.5642121,16.90909)"
       x1="459.03448"
       y1="419.23337"
       x2="35.310345"
       y2="207.36522" />
    <linearGradient
       inkscape:collect="always"
       id="linearGradient4338">
      <stop
         style="stop-color:#f2f2f2;stop-opacity:1"
         offset="0"
         id="stop4340" />
      <stop
         style="stop-color:#f9f9f9;stop-opacity:1"
         offset="1"
         id="stop4342" />
    </linearGradient>
  </defs>
  <sodipodi:namedview
     pagecolor="#ffffff"
     bordercolor="#666666"
     borderopacity="1"
     objecttolerance="10"
     gridtolerance="10"
     guidetolerance="10"
     inkscape:pageopacity="0"
     inkscape:pageshadow="2"
     inkscape:window-width="683"
     inkscape:window-height="480"
     id="namedview6"
     showgrid="false"
     inkscape:zoom="14.75"
     inkscape:cx="8"
     inkscape:cy="8"
     inkscape:window-x="0"
     inkscape:window-y="27"
     inkscape:window-maximized="0"
     inkscape:current-layer="svg4" />
  <path
     style="color:#000000;font-style:normal;font-variant:normal;font-weight:normal;font-stretch:normal;font-size:medium;line-height:normal;font-family:sans-serif;font-variant-ligatures:normal;font-variant-position:normal;font-variant-caps:normal;font-variant-numeric:normal;font-variant-alternates:normal;font-feature-settings:normal;text-indent:0;text-align:start;text-decoration:none;text-decoration-line:none;text-decoration-style:solid;text-decoration-color:#000000;letter-spacing:normal;word-spacing:normal;text-transform:none;writing-mode:lr-tb;direction:ltr;text-orientation:mixed;dominant-baseline:auto;baseline-shift:baseline;text-anchor:start;white-space:normal;shape-padding:0;clip-rule:nonzero;display:inline;overflow:visible;visibility:visible;opacity:0.1;isolation:auto;mix-blend-mode:normal;color-interpolation:sRGB;color-interpolation-filters:linearRGB;solid-color:#000000;solid-opacity:1;vector-effect:none;fill:#000000;fill-opacity:1;fill-rule:nonzero;stroke:none;stroke-width:2;stroke-linecap:butt;stroke-linejoin:miter;stroke-miterlimit:4;stroke-dasharray:none;stroke-dashoffset:0;stroke-opacity:1;marker:none;color-rendering:auto;image-rendering:auto;shape-rendering:auto;text-rendering:auto;enable-background:accumulate"
     d="m 5.0962579,1.0000007 c -0.71904,0 -1.30185,0.0139 -1.83593,0.10352 -0.53409,0.0897 -1.0683,0.27628 -1.4765701,0.68359 -0.40826,0.4073 -0.59657,0.94323 -0.68554,1.47851 -0.089,0.53529 -0.10119004,1.12048 -0.0977,1.8418 V 8.0000003 11.89844 c -0.003,0.71816 0.009,1.30235 0.0977,1.83594 0.089,0.53528 0.27727,1.07121 0.68554,1.47851 0.4082701,0.40731 0.9424801,0.59394 1.4765701,0.68359 0.53408,0.0897 1.11689,0.10352 1.83593,0.10352 h 5.8086001 c 0.71904,0 1.30058,-0.0137 1.83398,-0.10352 0.53341,-0.0898 1.06768,-0.27792 1.47461,-0.68554 0.40693,-0.40762 0.59404,-0.94271 0.68359,-1.47656 0.08956,-0.53386 0.10352,-1.11551 0.10352,-1.83594 V 8.0000003 5.1015607 c 0,-0.72043 -0.014,-1.30208 -0.10352,-1.83594 -0.0895,-0.53385 -0.27666,-1.06894 -0.68359,-1.47656 -0.40693,-0.40762 -0.9412,-0.59578 -1.47461,-0.68554 -0.5334,-0.08977 -1.11494,-0.10352 -1.83398,-0.10352 z"
     id="path997"
     inkscape:connector-curvature="0"
     sodipodi:nodetypes="scscccccccsscscscscscss" />
  <path
     sodipodi:nodetypes="scccssscsss"
     inkscape:connector-curvature="0"
     id="path928"
     d="m 5.0970179,1.0000007 c -2.80769,0 -3.1097901,0.28839 -3.09603,3.10176 V 8.0000003 11.89824 C 1.9871879,14.71161 2.2893279,15 5.0970179,15 h 5.8075001 c 2.8077,0 3.09604,-0.28835 3.09604,-3.10176 V 8.0000003 4.1017607 c 0,-2.8134 -0.28835,-3.10176 -3.09604,-3.10176 z"
     style="color:#000000;display:inline;overflow:visible;visibility:visible;opacity:0.2;fill:none;fill-opacity:1;fill-rule:nonzero;stroke:#000000;stroke-width:2;stroke-miterlimit:4;stroke-dasharray:none;stroke-opacity:1;marker:none;enable-background:accumulate" />
  <path
     style="color:#000000;display:inline;overflow:visible;visibility:visible;fill:url(#linearGradient920);fill-opacity:1;fill-rule:nonzero;stroke:none;stroke-width:1;marker:none;enable-background:accumulate"
     d="m 5.0970179,1.0000007 c -2.80769,0 -3.1097901,0.28839 -3.09603,3.10176 V 8.0000003 11.89824 C 1.9871879,14.71161 2.2893279,15 5.0970179,15 h 5.8075001 c 2.8077,0 3.09604,-0.28835 3.09604,-3.10176 V 8.0000003 4.1017607 c 0,-2.8134 -0.28835,-3.10176 -3.09604,-3.10176 z"
     id="path918"
     inkscape:connector-curvature="0"
     sodipodi:nodetypes="scccssscsss" />
  <path
     style="display:inline;fill:#aea795;fill-opacity:1;stroke-width:0.11802174;enable-background:new"
     d="m 11.997668,2.9980707 -7.0000001,0.0117 v 0.99023 c 1,-0.002 1,0.99807 1,1.99807 l 0.0156,3.0117196 c -0.0104,1.5010997 -0.11489,1.9388497 -1,1.9999997 h -0.0156 v 0.99805 l 4,-0.01 v -1 c 0,0 -0.65977,0.0143 -1,0 -1,0 -1,-1 -1,-1 -0.0165,-0.8785897 0,-1.9999997 0,-1.9999997 0.2415,0.036 0.79599,0 1,0 1,0 1,1 1,1 h 1 V 5.9978407 h -1 c -0.009,0.1902 0,1 -1,1 h -1 v -3 l 2,2.3e-4 c 2.5000001,2.9e-4 2.0000001,1 2.0000001,2 h 1 z"
     id="path1067"
     inkscape:connector-curvature="0"
     sodipodi:nodetypes="cccccccccccccsccccsccsccc" />
  <path
     style="color:#000000;display:inline;overflow:visible;visibility:visible;opacity:0.2;fill:#ffffff;fill-opacity:1;fill-rule:nonzero;stroke:none;stroke-width:1;marker:none;enable-background:accumulate"
     d="M 8.0005579,1.0000007 V 15 h 2.9043001 c 2.8077,0 3.0957,-0.28815 3.0957,-3.10156 V 8.0000003 4.1015607 c 0,-2.8134 -0.28801,-3.10156 -3.0957,-3.10156 z"
     id="path1009"
     inkscape:connector-curvature="0" />
  <path
     style="color:#000000;display:inline;overflow:visible;visibility:visible;opacity:0.2;fill:#ffffff;fill-opacity:1;fill-rule:nonzero;stroke:none;stroke-width:1;marker:none;enable-background:accumulate"
     d="M 2.0005579,8.0000003 V 11.89844 C 1.9867579,14.71181 2.2885679,15 5.0962579,15 h 5.8086001 c 2.8077,0 3.0957,-0.28815 3.0957,-3.10156 V 8.0000003 Z"
     id="path1016"
     inkscape:connector-curvature="0" />
  <path
     transform="translate(-319.99944,-236)"
     style="color:#000000;display:inline;overflow:visible;visibility:visible;opacity:0.4;fill:none;fill-opacity:1;fill-rule:nonzero;stroke:url(#linearGradient993);stroke-width:2;stroke-miterlimit:4;stroke-dasharray:none;stroke-opacity:1;marker:none;enable-background:accumulate"
     d="m 325.09646,237 c -2.80769,0 -3.10979,0.28839 -3.09603,3.10176 V 244 v 3.89824 c -0.0138,2.81337 0.28834,3.10176 3.09603,3.10176 h 5.8075 C 333.71166,251 334,250.71165 334,247.89824 V 244 240.10176 C 334,237.28836 333.71165,237 330.90396,237 Z"
     id="path937"
     inkscape:connector-curvature="0"
     sodipodi:nodetypes="scccssscsss"
     clip-path="url(#clipPath983)" />
</svg>
